X:9
T:Brandford Hunt
M:2/4
L:1/8
B:Thompson's Compleat Collection of 200 Favourite Country Dances, vol. 3 (London, 1773)
Z:Transcribed and edited by Flynn Titford-Mock, 2007
Z:abc's:AK/Fiddler's Companion
K:D
a>aa>g | f>ff>e | dd (3ede | ff f2 | a>aa>g | f>ff>e | d>d (3def | d2 d2::ee e2 | (3fga e2 |
(3fga (3agf | ee (3efg | a>aa>g | f>ff>e | dd (3ede | f>f f(d/4e/4f/4g/4) | a>aa>g | f>ff>e | dd (3def | d2d2 :|

